X:005
T:Nancy Dawson TS.005
T:Piss on the Grass,aka TS.005
M:6/8
L:1/8
Q:3/8=120
S:Thomas Sands’ MS,1810,Lincolnshire
R:jig
O:England;Lincolnshire
N:I’m afraid that the coarser title is the more correct one CGP.
Z:vmp.Ruairidh Greig, 2011
K:G
G2GG2B|d2BG2B|A2AA2B|A2G FED|
G2GG2B|d2BG2B|A2GF2E|D3D3:|
|:A2BA2B|A2G FED|B2cB2c|d2BG2B|
c2Bc2d|e2fg2f|”undotted in ms”e3(d/c/B/) (A/G/F/)|G3G3:|]

